X: 6
T: The Yellow Heifer
R: reel
M: 4/4
L: 1/8
K: Amix
|:EAAG A2 Bd|cA (3AAA eAcA|EGGF FG2 c|BG3 EGBG||EAAG A2 Bd|cAAB cdef|g3 e dBGB|1 BcBG EAAG:|2 cABG EAAB||:eaa^g gaea|(3aaa ea bage|dggf fgdg|(3ggg ba gBdg||eaa^g gaea|(3aaa ea bage|dg3 dBGB|1 cABG EAAB:|2 cABG EAAG||


Tune 344	Setting 26817

